X: 4704
T: Boys Of 25, The
R: reel
M: 4/4
K: Dmixolydian
dB|=cAAF G2AB|=cABG AddB|=cAAF G2eg|fdec AddB|
=cAAF ~G2AB|=cABG AddB|=cAAF ~G2 e/f/g|fdec Adde||
f2fg a2ag|fefg afde|fefg abag|fdec Adde|
~f3g ~a3g|f3g afde|feaf gbag|fdec AddB||

